X:1
T:Big Head
T:Big Head
C:Jack Meadows
Z:All Rights Reserved
L:1/8
Q:1/4=120
M:4/4
K:G
V:1 treble nm="MusicXML Part"
%%MIDI program 0
%%MIDI control 7 102
%%MIDI control 10 64
V:1
 z6 D2 |"G" d3/2 d/ d3/2 d/"Em" B3/2 B/ B3/2 B/ |"Am7" c>d c>B"C6" A3"D7" D | %3
w: It's|fun- ny how some peo- ple al- ways|love to take the rise, They|
"G" G>A B>G"D7" A>G F>A |"G" G6"D7" D2 |"G" d3/2 d/ d3/2 d/"Em" B3/2 B/ B3/2 B/ | %6
w: think it's big to make some- one look|small. But|if they on- ly stopped to think per-|
"Am6" c>d c>B"B7" A3 A |"Em" B>A G>F"A7" E>F G>E |"C6""Cm6" A6"D7" z2 |:"G" E>D ^C>D E>D C>D | %10
w: haps they'd re- al- ise, That|they are not so per- fect af- ter|all.|Why does ev- ry- bo- dy call me|
"E7" c4 B3 E |"A7" B>A ^G>A B>A G>A | E8 |"D7" E>D ^C>D E>D C>D | B4 A3 B |"G" A>G F>G A>G A>B | %16
w: "Big Head" Why|do they take the mick- ey out of|me?|ev- 'ry- where I go they call me|"BIG HEAD" It|is- n't ve- ry nice you must a-|
"Am7""D7" d6 D2 |"G" E>D ^C>D E>D C>D |"E7" c4 B3 ^D/E/ |"A7" B>A ^G>A B>A G>A | E6 G2 | %21
w: gree. I|Don't know how I got the name of|"BIG HEAD" It's a|puz- zle that I nev- er could de-|fine, 'Cause|
"C" A>G F>G"C#dim" A>G F>G |"G" d4"E7" B3 c/ d/ |"Am7" e2"D7" E2 B2 B2 |1"G""D7" G4 :|2"G" G6 z2 |] %26
w: near- ly all the folks who call me|"BIG HEAD" Have got|big- ger heads than|mine.|mine.|

